X:1
T:Title
%%score 1 2 3 4
L:1/8
Q:1/4=55
M:4/4
K:Bb
V:1 treble nm="Midi_1"
V:2 treble nm="Midi_1"
V:3 treble-8 nm="Midi_1"
V:4 bass nm="Midi_1"
V:1
"^Choral, Vers 5: Ich ruf' zu dir, Herr Jesu Christ, BWV 177" d2 | B2 (AB/c/) BA GA | %2
w: Ich|lieg im * * Streit * und *|
w: An|dei- ner * * Gnad * al *|
 B>c Tc2 !fermata!d2 de | fe"^Johann Sebastian Bach\nText: Johann Agricola" dc B2 cd | e4 d2 :| %5
w: wi * der- streb', hilf, *|o * Herr * Christ, dem *|Schwa- chen;|
w: lein * ich kleb', du *|kannst * mich * stär- ker *|ma- chen.|
[M:4/4] f2 | g2 fe dc Bc | de c2 !fermata!B2 d2 | d2 d2 c2 BA | A4 !fermata!G4 | B2 A2 G4 | %11
w: Kömmt|nun An * fech * tung, *|Herr, * so wehr', dass|sie mich nicht um *|sto- ße.|Du kannst ma-|
w: ||||||
 !fermata!F2 F2 B2 B2 | c2 c2 !fermata!d2 e2 | d2 c2 BA GA | (B2 A2) !fermata!G2 |] %15
w: chen, dass mir's nicht|bring' Ge- fahr. Ich|weiß, du wirst's * nicht *|las * sen.|
w: ||||
V:2
 A2 | G2 ^F2 (GF) (GF) | G3 A !fermata!^F2 G2 | F2 F2 G2 F2 | (E G2 ^F) G2 :| %5
w: Ich|lieg im Streit * und *|wi- der- streb', hilf,|o Herr Christ, dem|Schwa * * chen;|
w: An|dei- ner Gnad * al *|lein ich kleb', du|kannst mich stär- ker|ma * * chen.|
[M:4/4] !courtesy!=FB/_A/ | G2 !courtesy!=A2 A2 B2 | Bc A2 !fermata!F2 (FG) | Ac BA G^F G2 | %9
w: Kömmt * *|nun An- fech- tung,|Herr, * so wehr', dass *|sie * mich * nicht * um-|
w: ||||
 (G2 ^F2) !fermata!G4 | G3 !courtesy!=F (F=E/D/ E2) | !fermata!C2 C2 F2 EF | %12
w: sto * ße.|Du kannst ma * * *|chen, dass mir's nicht *|
w: |||
 (GE) C2 !fermata!G2 G2 | (G^F) (GA) (GF) G2 | (G2 ^F2) !fermata!D2 |] %15
w: bring' * Ge- fahr. Ich|weiß, * du * wirst's * nicht|las * sen.|
w: |||
V:3
 d2 | (d e2) d/c/ d4- | dd (c/B/) (A/G/) !fermata!A2 B2 | c2 B_A G2 =A=B | (cB A2) B2 :| %5
w: Ich|lieg * im * Streit|* und wi * der * streb', hilf,|o Herr * Christ, dem *|Schwa * * chen;|
w: An|dei- * ner * Gnad|* al- lein * ich * kleb', du|kannst mich * stär- ker *|ma * * chen.|
[M:4/4][K:treble-8] B2 | Be dc d3 e | fg fe !fermata!d2 B2 | A2 G2 cd e2 | (d c2 B) !fermata!B4 | %10
w: Kömmt|nun * An * fech- tung,|Herr, * so * wehr', dass|sie mich nicht * um-|sto * * ße.|
w: |||||
 c2 c2 (d2 cB) | !fermata!A2 A2 (B_A) (GB) | eg gf !fermata!=B2 c_B | A2 Gd d3 e | %14
w: Du kannst ma * *|chen, dass mir's * nicht *|bring' * Ge * fahr. Ich *|weiß, du * wirst's nicht|
w: ||||
 (d3 c) !fermata!=B2 |] %15
w: las * sen.|
w: |
V:4
 ^F,2 | G,4- G,A,B,A, | G,F, E,2 !fermata!D,2 G,2 | A,2 B,2 E,F, E,D, | C,4 G,,2 :|[M:4/4] D,2 | %6
w: Ich|lieg * im Streit und|wi * der- streb', hilf,|o Herr Christ, * dem *|Schwa- chen;|Kömmt|
w: An|dei- * ner Gnad al-|lein * ich kleb', du|kannst mich stär * ker *|ma- chen.||
 E,2 F,2 ^F,2 G,2 | !courtesy!=F,E, F,2 !fermata!B,,2 B,2 | ^F,2 G,=F, E,2 D,C, | %9
w: nun An- fech- tung,|Herr, * so wehr', dass|sie mich * nicht um *|
w: |||
 D,4 !fermata!E,4 | =E,2 F,2 (B,,2 C,2) | !fermata!F,2 F,!courtesy!_E, D,2 E,D, | %12
w: sto- ße.|Du kannst ma *|chen, dass * mir's nicht *|
w: |||
"^© 2011 by CPDL. This edition can be fully distributed, duplicated, performed, and recorded. Edited by Juliane Claudi" C,B,, _A,,2 !fermata!G,,2 C,2 | %13
w: bring' * Ge- fahr. Ich|
w: |
 D,2 =E,^F, G,A, B,C | (D2 D,2) !fermata!G,2 |] %15
w: weiß, du * wirst's * nicht *|las * sen.|
w: ||

